NeoWeb/wwwroot/images/ecoboost/TProject1.svg

<svg viewBox="0 0 86 86" xmlns="http://www.w3.org/2000/svg"><path d="m42.11 17.93-20.35 11.75a2 2 0 0 0 -1 1.73v23.49a2 2 0 0 0 1 1.73l20.35 11.75a2 2 0 0 0 2 0l20.34-11.75a2 2 0 0 0 1-1.73v-23.49a2 2 0 0 0 -1-1.73l-20.34-11.75a2 2 0 0 0 -2 0z" fill="#2b393f"/><path d="m31.52 73.22-19.74-11.42a2 2 0 0 1 -1-1.74v-22.82a1 1 0 0 1 1.5-.87l19.72 11.43a2 2 0 0 1 1 1.73v22.83a1 1 0 0 1 -1.48.86z" fill="#02e49b"/></svg>

<svg id="Layer_1" data-name="Layer 1" xmlns="http://www.w3.org/2000/svg" viewBox="0 0 86 86"><defs><style>.cls-1{fill:#2b393f;}.cls-2{fill:#02e49b;}</style></defs><title>Artboard 77</title><path class="cls-1" d="M42.11,17.93,21.76,29.68a2,2,0,0,0-1,1.73V54.9a2,2,0,0,0,1,1.73L42.11,68.38a2,2,0,0,0,2,0L64.45,56.63a2,2,0,0,0,1-1.73V31.41a2,2,0,0,0-1-1.73L44.11,17.93A2,2,0,0,0,42.11,17.93Z"/><path class="cls-2" d="M31.52,73.22,11.78,61.8a2,2,0,0,1-1-1.74V37.24a1,1,0,0,1,1.5-.87L32,47.8a2,2,0,0,1,1,1.73V72.36A1,1,0,0,1,31.52,73.22Z"/></svg>
